!!!COM:	W.A. Mozart
!!!OTL:	Quartet No.2 in D Major, K.155
**kern	**kern	**kern	**dynam	**kern
*part4	*part3	*part2	*part2	*part1
*staff4	*staff3	*staff2	*	*staff1
*I"Cello	*I"Viola	*I"Violin II	*	*I"Violin I
*I'Vc.	*I'Vla.	*I'Vln. II	*	*I'Vln. I
*clefF4	*clefC3	*clefG2	*	*clefG2
*k[f#c#]	*k[f#c#]	*k[f#c#]	*	*k[f#c#]
*D:	*D:	*D:	*	*D:
*M4/4	*M4/4	*M4/4	*	*M4/4
*met(c)	*met(c)	*met(c)	*	*met(c)
=1	=1	=1	=1	=1
8DL	8dL	4a 4ff#	.	4a 4aa
8F#	8d	.	.	.
8A	8d	4dd	.	4a 4ff#
8F#J	8dJ	.	.	.
4D	8dL	8r	.	8r
.	8d	8f#L	.	8aL
4r	8d	8f#	.	8a
.	8dJ	8f#J	.	8aJ
=2	=2	=2	=2	=2
1r	8dL	(8.gTL	.	(8.bTL
.	8d	.	.	.
.	.	32f#LL	.	32aLL
.	.	32gJJJ)	.	32bJJJ)
.	8d	4f#	.	4a
.	8dJ	.	.	.
.	4d	16r	.	16r
.	.	16f#LL	.	16aLL
.	.	16g	.	16b
.	.	16aJJ	.	16cc#JJ
.	4r	16bLL	.	16ddLL
.	.	16cc#	.	16ee
.	.	16dd	.	16ff#
.	.	16eeJJ	.	16ggJJ
=3	=3	=3	=3	=3
8DL	8dL	4a 4ff#	.	4a 4aa
8F#	8d	.	.	.
8A	8d	4dd	.	4a 4ff#
8F#J	8dJ	.	.	.
4D	8dL	8r	.	8r
.	8d	8f#L	.	8aL
4r	8d	8f#	.	8a
.	8dJ	8f#J	.	8aJ
=4	=4	=4	=4	=4
2r	8dL	(8.eL	.	(8.gL
.	8d	.	.	.
.	.	32dLL	.	32f#LL
.	.	32eJJJ)	.	32gJJJ)
.	8d	4d	.	4f#
.	8dJ	.	.	.
8F#L	8AL	4r	.	(8ddL
8F#	8A	.	.	8ff#)
8F#	8A	(4a	.	8aa
8F#J	8AJ	.	.	8dddJ
=5	=5	=5	=5	=5
8EL	[1A	4g	.	(8dddL
8E	.	.	.	8ccc#)
8D	.	4f#)	.	8bb'
8DJ	.	.	.	8aa'J
8C#L	.	(8f#L	.	(8aaL
8C#	.	8e)	.	8gg)
8AA	.	8d'	.	8ff#'
8AAJ	.	8c#'J	.	8ee'J
=6	=6	=6	=6	=6
8DL	2A]	16dLL	.	16ff#LL
.	.	16f#	.	16aa
8D	.	16e	.	16gg
.	.	16gJJ	.	16bbJJ
8D	.	4f#	.	4aa
8DJ	.	.	.	.
8F#L	[2A	4r	.	(8ddL
8F#	.	.	.	8ff#)
8F#	.	(4a	.	8aa
8F#J	.	.	.	8dddJ
=7	=7	=7	=7	=7
8EL	1A_	4g	.	(8dddL
8E	.	.	.	8ccc#)
8D	.	4f#)	.	8bb'
8DJ	.	.	.	8aa'J
8C#L	.	(8f#L	.	(8aaL
8C#	.	8e)	.	8gg)
8AA	.	8d'	.	8ff#'
8AAJ	.	8c#'J	.	8ee'J
=8	=8	=8	=8	=8
2D	2A]	(16dLL	.	(16ff#LL
.	.	16f#)	.	16aa)
.	.	(16e	.	(16gg
.	.	16gJJ)	.	16bbJJ)
.	.	4f#	.	4aa
2F#	8dL	8aL	.	16ddLL
.	.	.	.	16ee
.	8d	8a	.	16ff#
.	.	.	.	16ggJJ
.	8d	8a	.	16aaLL
.	.	.	.	16bb
.	8dJ	8aJ	.	16ccc#
.	.	.	.	16dddJJ
=9	=9	=9	=9	=9
2G	8dL	8bL	.	(16eeLL
.	.	.	.	16ff#
.	8d	8b	.	16gg
.	.	.	.	16ff#JJ)
.	8d	8b	.	4ee
.	8dJ	8bJ	.	.
2G	8dL	8bL	.	16eeLL
.	.	.	.	16ff#
.	8d	8b	.	16gg
.	.	.	.	16aaJJ
.	8e	8g	.	16bbLL
.	.	.	.	16gg
.	8eJ	8gJ	.	16ff#
.	.	.	.	16eeJJ
=10	=10	=10	=10	=10
2A	8dL	8f#L	.	(32ff#LLL
.	.	.	.	32ggJJ
.	.	.	.	8.aaJ)
.	8d	8f#	.	.
.	8d	8f#	.	2aa
.	8dJ	8f#J	.	.
2A	8dL	8f#L	.	.
.	8d	8f#	.	.
.	8d	8f#	.	16ggLL
.	.	.	.	16ff#
.	8dJ	8f#J	.	16ee
.	.	.	.	16ddJJ
=11	=11	=11	=11	=11
2AA	4e	16gLL	.	16cc#LL
.	.	16f#	.	16dd
.	.	16g	.	16cc#
.	.	16f#JJ	.	16ddJJ
.	16gLL	16eLL	.	16eeLL
.	16f#	16d	.	16ff#
.	16g	16e	.	16ee
.	16f#JJ	16dJJ	.	16ff#JJ
2AA	(8eL	(8c#L	.	(8ggL
.	8c#)	8e)	.	8ee)
.	(8d	(8f#	.	(8dd
.	8eJ)	8gJ)	.	8cc#J)
=12	=12	=12	=12	=12
4D	4d	4f#	.	4dd
4DD	(16F#LL	4A	.	(16dLL
.	16E	.	.	16c#
.	16F#	.	.	16d
.	16GJJ)	.	.	16eJJ)
4DD	4F#'	4A	.	4d'
4r	4r	4r	.	4r
=13	=13	=13	=13	=13
2BB	2.F#	2.B	.	2.d
2BB	.	.	.	.
.	4B	(8dL	.	4bb
.	.	8f#J)	.	.
=14	=14	=14	=14	=14
2E	[1E	(8f#L	.	(8aaL
.	.	8eJ)	.	8gg#XJ)
.	.	2e	.	2gg#
2E	.	.	.	.
.	.	4d	.	4ff#
=15	=15	=15	=15	=15
2E	2E]	(8dTL	.	(8ff#tL
.	.	8c#J)	.	8eeJ)
.	.	(2c#	.	(2ee
2E	4F#	.	.	.
.	4G#X	4B)	.	4dd)
=16	=16	=16	=16	=16
2AA	8AL	4BT	.	4ddT
.	8e	.	.	.
.	8e	4A	.	4cc#
.	8eJ	.	.	.
4AA	2e	(8dL	.	(8ff#L
.	.	8c#)	.	8ee)
4r	.	8B'	.	8dd'
.	.	8A'J	.	8cc#'J
=17	=17	=17	=17	=17
4E	2e	4A	.	4cc#
4r	.	4G#X	.	4b
4E	2e	(8eL	.	(8gg#XL
.	.	8d)	.	8ff#)
4r	.	8c#'	.	8ee'
.	.	8B'J	.	8dd'J
=18	=18	=18	=18	=18
4A	2e	(4B	.	(4dd
4r	.	4A)	.	4cc#)
.	.	.	.	16qqa/
8C#L	2e	8gnL	.	[2aa
8C#	.	8g	.	.
8C#	.	8g	.	.
8C#J	.	8gJ	.	.
=19	=19	=19	=19	=19
8DL	2d	8f#L	.	4aa]
8D	.	8f#	.	.
.	.	.	.	16qqgg/
8D	.	8a	.	4ff#
8DJ	.	8aJ	.	.
.	.	.	.	16qqee/
8DL	2f#	8bL	.	4.dd
8D	.	8b	.	.
8D	.	8b	.	.
8D#XJ	.	8aJ	.	8cc#
=20	=20	=20	=20	=20
2E	2e	(8.aTL	.	(8.cc#tL
.	.	32g#XLL	.	32bLL
.	.	32aJJJ)	.	32cc#JJJ)
.	.	4g#	.	4b
2E	2d	2r	.	8bbL
.	.	.	.	16gg#XL
.	.	.	.	16eeJJ
.	.	.	.	8bbL
.	.	.	.	16gg#L
.	.	.	.	16eeJJ
=21	=21	=21	=21	=21
2E	8c#L	2r	.	(8aaL
.	8c#	.	.	8ccc#J)
.	8B	.	.	2ee
.	8AJ	.	.	.
2E	8G#XL	8bL	.	.
.	8B	16g#XL	.	.
.	.	16eJJ	.	.
.	8G#	8bL	.	(8.ddTL
.	8BJ	16g#L	.	.
.	.	16eJJ	.	32cc#LL
.	.	.	.	32ddJJJ)
=22	=22	=22	=22	=22
2E	(4e	(8aL	.	(8cc#L
.	.	8cc#J)	.	8eeJ)
.	4c#)	2e	.	4aa
2E	(8G#XL	.	.	8bbL
.	8B)	.	.	16gg#XL
.	.	.	.	16eeJJ
.	(8G#	(8.dTL	.	8bbL
.	8BJ)	.	.	16gg#L
.	.	32c#LL	.	16eeJJ
.	.	32dJJJ)	.	.
=23	=23	=23	=23	=23
2E	(4e	(8c#L	.	(8aaL
.	.	8eJ)	.	8ccc#J)
.	4c#)	4a	.	2ee
2E	(8G#XL	8bL	.	.
.	8B)	16g#XL	.	.
.	.	16eJJ	.	.
.	(8G#	8bL	.	(8.ddL
.	8BJ)	16g#L	.	.
.	.	16eJJ	.	32cc#LL
.	.	.	.	32ddJJJ)
=24	=24	=24	=24	=24
4AA	4A	8ee	.	8cc#
.	.	4a	.	4aa
4AA	4c#	.	.	.
.	.	4g	.	4gg
4BB	4d	.	.	.
.	.	4f#	.	4ff#
4C#	4A	.	.	.
.	.	8e#X	.	8ee#X
=25	=25	=25	=25	=25
8r	8r	(4.f#	.	(4.ff#
8D	8A	.	.	.
4D	4A	.	.	.
.	.	8g#X)	.	8gg#X)
8r	8r	(4.a	.	(4.aa
8d	8f#	.	.	.
4d	4f#	.	.	.
.	.	8a#X)	.	8aa#X)
=26	=26	=26	=26	=26
8r	8r	(4.b	.	(4.bb
8D	8F#	.	.	.
4D	4F#	.	.	.
.	.	8cc#)	.	8ccc#)
.	.	16qqee/	.	16qqeee/
2r	2r	8ddL	.	8dddL
.	.	16cc#L	.	16ccc#L
.	.	16bJJ	.	16bbJJ
.	.	16qqb/	.	16qqbb/
.	.	8aL	.	8aaL
.	.	16g#XL	.	16gg#XL
.	.	16f#JJ	.	16ff#JJ
=27	=27	=27	=27	=27
8C#L	4A	4e	.	4ee
8C#	.	.	.	.
8F#	2f#	(2a	.	16ddLL
.	.	.	.	16cc#
8F#J	.	.	.	16b
.	.	.	.	16aJJ
8DL	.	.	.	2bT
8D	.	.	.	.
8E	(8eL	4g#X)	.	.
8EJ	8dJ)	.	.	.
=28	=28	=28	=28	=28
4AA	8c#L	8aL	.	4a
.	8c#'	8e'	.	.
4r	8c#'	8e'	.	4r
.	8c#'J	8e'J	.	.
2r	(8c#tL	(8eTL	.	2r
.	8B)	8d)	.	.
.	(8BT	(8dT	.	.
.	8AJ)	8c#J)	.	.
=29	=29	=29	=29	=29
4B	8r	8r	.	(2.dd
.	8BL	8f#L	.	.
4r	8B	8f#	.	.
.	8BJ	8f#J	.	.
4A	8r	8r	.	.
.	8BL	(8f#L	.	.
4r	8B	8d)	.	4ff#)
.	8BJ	8d'J	.	.
=30	=30	=30	=30	=30
4G#X	8r	8r	.	(8ff#L
.	8BL	8dL	.	8eeJ)
4r	8B	8d	.	2ee
.	8BJ	8dJ	.	.
4A	8r	8r	.	.
.	(8AL	(8c#L	.	.
4r	8B	8d	.	(8ddL
.	8c#J)	8eJ)	.	8cc#J)
=31	=31	=31	=31	=31
.	.	.	.	8qqcc#/
4D	8r	8r	.	4b
.	8dL	8f#L	.	.
4r	8d	8f#	.	(2a
.	8dJ	8f#J	.	.
4E	8c#L	8eL	.	.
.	8c#	8e	.	.
4r	8B	8d	.	4g#X)
.	8BJ	8dJ	.	.
=32	=32	=32	=32	=32
4AA	(8AL	(8c#L	.	(4.a
.	8B)	8d)	.	.
4r	8c#'	8e'	.	.
.	8d'J	8e'J	.	8b)
2r	(8c#tL	(8eTL	.	4cc#
.	8B)	8d)	.	.
.	(8BT	(8dT	.	4r
.	8AJ)	8c#J)	.	.
=33	=33	=33	=33	=33
4B	8r	8r	.	(2.dd
.	8BL	8f#L	.	.
4r	8B	8f#	.	.
.	8BJ	8f#J	.	.
4A	8r	8r	.	.
.	8BL	(8f#L	.	.
4r	8B	8d)	.	4ff#)
.	8BJ	8d'J	.	.
=34	=34	=34	=34	=34
4G#X	8r	8r	.	(8ff#L
.	8BL	8dL	.	8eeJ)
4r	8B	8d	.	2ee
.	8BJ	8dJ	.	.
4A	8r	8r	.	.
.	(8AL	(8c#L	.	.
4r	8B	8d	.	(8ddL
.	8c#J)	8eJ)	.	8cc#J)
=35	=35	=35	=35	=35
.	.	.	.	8qqcc#/
4D	8r	8r	.	4b
.	8dL	8f#L	.	.
4r	8d	8f#	.	(2a
.	8dJ	8f#J	.	.
4E	8c#L	8eL	.	.
.	8c#	8e	.	.
4r	8B	8d	.	4g#X)
.	8BJ	8dJ	.	.
=36	=36	=36	=36	=36
2Fn	2A	8cnL	.	[2a
.	.	8c	f	.
.	.	8c	.	.
.	.	8cJ	.	.
2F	2A	8cL	.	8aL]
.	.	8c	.	16bL
.	.	.	.	16ccnJJ
.	.	8c	.	16ddLL
.	.	.	.	16ee
.	.	8cJ	.	16ffn
.	.	.	.	16gg#XJJ
=37	=37	=37	=37	=37
2Fn	2d#X	8cnL	.	2aa
.	.	8c	.	.
.	.	8c	.	.
.	.	8cJ	.	.
2F#X	2cc#	8aL	.	2dd#X
.	.	8a	.	.
.	.	8a	.	.
.	.	8aJ	.	.
=38	=38	=38	=38	=38
8G#XL	2b	8eL	.	[2dd
8G#	.	8e	.	.
8G#	.	8e	.	.
8G#J	.	8eJ	.	.
8G#L	8g#XL	8bL	.	8ddL]
8G#	8g#	8b	.	16eeL
.	.	.	.	16ff#JJ
8F#	8f#	8a	.	16gg#XLL
.	.	.	.	16aa
8F#J	8f#J	8aJ	.	16bb
.	.	.	.	16ccc#JJ
=39	=39	=39	=39	=39
2E	2B	8g#XL	.	2ddd
.	.	8g#	.	.
.	.	8g#	.	.
.	.	8g#J	.	.
2GG#X	2E	8BL	.	2d
.	.	8B	.	.
.	.	8B	.	.
.	.	8BJ	.	.
=40	=40	=40	=40	=40
2AA	4E	8AL	.	4c#
.	.	16c#L	.	.
.	.	16eJJ	.	.
.	4r	4a	.	8r
.	.	.	.	16eeLL
.	.	.	.	16cc#JJ
2C#	8eL	2r	.	8aaL
.	8e	.	.	16eeL
.	.	.	.	16cc#JJ
.	8e	.	.	8aaL
.	8eJ	.	.	16eeL
.	.	.	.	16cc#JJ
=41	=41	=41	=41	=41
2D	4d	8f#L	.	4b
.	.	16bL	.	.
.	.	16ddJJ	.	.
.	4r	4ff#	.	8r
.	.	.	.	16ddLL
.	.	.	.	16bJJ
2D	2B	2r	.	8ff#L
.	.	.	.	16ddL
.	.	.	.	16bJJ
.	.	.	.	8ff#L
.	.	.	.	16ddL
.	.	.	.	16bJJ
=42	=42	=42	=42	=42
2E	2E	8A	.	8cc#
.	.	4c#	.	4ee
.	.	4B	.	4dd
2EE	2E	.	.	.
.	.	4A	.	4cc#
.	.	8G#X	.	8b
=43	=43	=43	=43	=43
2AA	4E	8AL	.	4a
.	.	16c#L	.	.
.	.	16eJJ	.	.
.	4r	4a	.	8r
.	.	.	.	16eeLL
.	.	.	.	16cc#JJ
2C#	8eL	2r	.	8aaL
.	8e	.	.	16eeL
.	.	.	.	16cc#JJ
.	8e	.	.	8aaL
.	8eJ	.	.	16eeL
.	.	.	.	16cc#JJ
=44	=44	=44	=44	=44
2D	4d	8f#L	.	4b
.	.	16bL	.	.
.	.	16ddJJ	.	.
.	4r	4ff#	.	8r
.	.	.	.	16ddLL
.	.	.	.	16bJJ
2D	8BL	2r	.	8ff#L
.	8B	.	.	16ddL
.	.	.	.	16bJJ
.	8B	.	.	8bbL
.	8BJ	.	.	16ff#L
.	.	.	.	16ddJJ
=45	=45	=45	=45	=45
4D	4B	4f#	.	8dddL
.	.	.	.	16bbL
.	.	.	.	16ff#JJ
4r	4r	4r	.	8fff#'L
.	.	.	.	8eee'J
2r	2r	2r	.	8ddd'L
.	.	.	.	8ccc#'
.	.	.	.	8bb'
.	.	.	.	8aa#X'J
=46	=46	=46	=46	=46
4D	4d	4f#	.	16bbLL
.	.	.	.	16ccc#
.	.	.	.	16bb
.	.	.	.	16ccc#JJ
4r	4r	4r	.	16dddLL
.	.	.	.	16eee
.	.	.	.	16ddd
.	.	.	.	16eeeJJ
4r	4r	4r	.	8fff#L
.	.	.	.	8ddd
4D#X	4B	4f#	.	8bb
.	.	.	.	8aanJ
=47	=47	=47	=47	=47
2E	2B	(4e	.	16gg#XLL
.	.	.	.	16aa
.	.	.	.	16bb
.	.	.	.	16aaJJ
.	.	4g#X)	.	16gg#LL
.	.	.	.	16ff#
.	.	.	.	16ee
.	.	.	.	16ddJJ
2AA	(4A	(4a	.	16cc#LL
.	.	.	.	16dd
.	.	.	.	16ee
.	.	.	.	16ddJJ
.	4c#)	4e)	.	16cc#LL
.	.	.	.	16b
.	.	.	.	16a
.	.	.	.	16gJJ
=48	=48	=48	=48	=48
4D	4A	4d	.	16f#LL
.	.	.	.	16g#X
.	.	.	.	16a
.	.	.	.	16g#JJ
4r	4r	4r	.	16aLL
.	.	.	.	16a#X
.	.	.	.	16b
.	.	.	.	16a#JJ
2r	2r	2r	.	16bLL
.	.	.	.	16cc#
.	.	.	.	16dd
.	.	.	.	16cc#JJ
.	.	.	.	16ddLL
.	.	.	.	16ee#X
.	.	.	.	16ff#
.	.	.	.	16ee#JJ
=49	=49	=49	=49	=49
4D	4d	4b	.	16ff#LL
.	.	.	.	16aa#X
.	.	.	.	16bb
.	.	.	.	16aa#JJ
4r	4r	4r	.	16bbLL
.	.	.	.	16ccc#
.	.	.	.	16ddd
.	.	.	.	16ccc#JJ
2r	2r	2r	.	16dddLL
.	.	.	.	16ccc#
.	.	.	.	16bb
.	.	.	.	16aanJJ
.	.	.	.	16gg#XLL
.	.	.	.	16ff#
.	.	.	.	16ee
.	.	.	.	16ddJJ
=50	=50	=50	=50	=50
8EL	8c#L	8aL	.	(8cc#L
8E	8c#	8a	.	16ddL
.	.	.	.	16eeJJ)
8F#	8c#	8a	.	16ddLL
.	.	.	.	16cc#
8F#J	8c#J	8aJ	.	16b
.	.	.	.	16aJJ
8DL	8f#L	8aL	.	2bT
8D	8f#	8a	.	.
8E	8e	8g#X	.	.
8EJ	8dJ	8g#J	.	.
=51	=51	=51	=51	=51
4AA	16c#LL	4a	.	4a
.	16e	.	.	.
.	16cc#	.	.	.
.	16bJJ	.	.	.
4C#	16aLL	4r	.	4r
.	16g#X	.	.	.
.	16f#	.	.	.
.	16eJJ	.	.	.
4BB	16dLL	4r	.	4r
.	16c#	.	.	.
.	16d	.	.	.
.	16BJJ	.	.	.
4E	16dLL	8.gg#XtL	.	8.bbTL
.	16c#	.	.	.
.	16d	.	.	.
.	16eJJ	32ff#LL	.	32aaLL
.	.	32gg#JJJ	.	32bbJJJ
=52	=52	=52	=52	=52
4AA	16c#LL	4aa	.	4ccc#
.	16e	.	.	.
.	16cc#	.	.	.
.	16bJJ	.	.	.
4C#	16aLL	4r	.	4r
.	16g#X	.	.	.
.	16f#	.	.	.
.	16eJJ	.	.	.
4BB	16dLL	4r	.	4r
.	16c#	.	.	.
.	16d	.	.	.
.	16BJJ	.	.	.
4E	16dLL	8.gg#XtL	.	8.bbTL
.	16c#	.	.	.
.	16d	.	.	.
.	16eJJ	32ff#LL	.	32aaLL
.	.	32gg#JJJ	.	32bbJJJ
=53	=53	=53	=53	=53
4AA	4c#	4aa	.	4aa
4A	4A 4e 4a	4A 4e 4a	.	4c# 4e 4a
4AA	4A 4e 4a	4A 4e 4a	.	4c# 4e 4a
4r	4r	4r	.	4r
=54	=54	=54	=54	=54
1r	(4.a	1r	.	1r
.	16bLL	.	.	.
.	16aJJ)	.	.	.
.	8g'L	.	.	.
.	8f#'	.	.	.
.	8e'	.	.	.
.	8d'J	.	.	.
=55	=55	=55	=55	=55
1r	4c#	(4.aa	.	1r
.	4d	.	.	.
.	.	16bbLL	.	.
.	.	16aaJJ)	.	.
.	4e	8gg'L	.	.
.	.	8ff#'	.	.
.	4r	8ee'	.	.
.	.	8dd'J	.	.
=56	=56	=56	=56	=56
(4.A	4e	4cc#	.	1r
.	4f#	4dd	.	.
16BLL	.	.	.	.
16AJJ)	.	.	.	.
8G'L	4g	4ee	.	.
8F#'	.	.	.	.
8E'	4r	4r	.	.
8D'J	.	.	.	.
=57	=57	=57	=57	=57
4C#	2r	4ee	.	(4.aa
4D	.	4ff#	.	.
.	.	.	.	16bbLL
.	.	.	.	16aaJJ)
4E	(4.a	4gg	.	8gg'L
.	.	.	.	8ff#'
4r	.	4r	.	8ee'
.	16bLL	.	.	8dd'J
.	16aJJ)	.	.	.
=58	=58	=58	=58	=58
2r	8gL	(4.aa	.	8cc#L
.	8f#	.	.	8dd
.	8e	.	.	8ee
.	8dJ	16bbLL	.	8ff#J
.	.	16aaJJ)	.	.
(4.A	4c#	8gg'L	.	4ee
.	.	8ff#'	.	.
.	4r	8ee'	.	4r
16BLL	.	8dd'J	.	.
16AJJ)	.	.	.	.
=59	=59	=59	=59	=59
8GL	2r	8cc#L	.	2r
8F#	.	8dd	.	.
8E	.	8ee	.	.
8DJ	.	8ff#J	.	.
4C#	4c#	4gg	.	4ee
4r	4B	4r	.	4dd
=60	=60	=60	=60	=60
4F#	8A#XL	2ff#	.	8cc#L
.	8A#	.	.	8c#
4r	8A#	.	.	8c#
.	8A#J	.	.	8c#J
2r	2A#	(8.ggTL	.	8c#L
.	.	.	.	8c#
.	.	16ff#Jk)	.	.
.	.	(8.ggTL	.	8c#
.	.	.	.	8c#J
.	.	16ff#Jk)	.	.
=61	=61	=61	=61	=61
4B	2B	(4.ff#	.	8dL
.	.	.	.	8d
4F#	.	.	.	8d
.	.	8bb)	.	8dJ
4D	2B	4ff#	.	8dL
.	.	.	.	8d
4BB	.	4ff#	.	8d
.	.	.	.	8dJ
=62	=62	=62	=62	=62
4F#	2A#X	2ff#	.	8c#L
.	.	.	.	8c#
4r	.	.	.	8c#
.	.	.	.	8c#J
2r	2A#	(8.ggL	.	8c#L
.	.	.	.	8c#
.	.	16ff#Jk)	.	.
.	.	(8.ggL	.	8c#
.	.	.	.	8c#J
.	.	16ff#Jk)	.	.
=63	=63	=63	=63	=63
4B	2B	(4.ff#	.	8dL
.	.	.	.	8d
4F#	.	.	.	8d
.	.	8bb)	.	8dJ
4D	2B	4ff#	.	4d
4BB	.	4gg#X	.	4ddd
=64	=64	=64	=64	=64
2AA	(8BL	(8gg#XL	.	(8dddL
.	8A)	8aaJ)	.	8ccc#J)
.	8A'	(2aa	.	(2ccc#
.	8A'J	.	.	.
2AA	2A	.	.	.
.	.	4ggn)	.	4bb)
=65	=65	=65	=65	=65
2AA	2A	(8ggL	.	(8bbL
.	.	8ff#J)	.	8aaJ)
.	.	2ff#	.	2aa
2AA	2A	.	.	.
.	.	4gg	.	4bb
=66	=66	=66	=66	=66
2AA	2A	(8ggL	.	(8bbL
.	.	8ff#J)	.	8aaJ)
.	.	(2ff#	.	(2aa
2AA	8BL	.	.	.
.	8B	.	.	.
.	8c#	4ee)	.	4gg)
.	8c#J	.	.	.
=67	=67	=67	=67	=67
2AA	(8c#L	(8eeL	.	(8ggL
.	8d)	8ddJ)	.	8ff#J)
.	8d'	2dd	.	2ff#
.	8d'J	.	.	.
2AA	(8f#L	.	.	.
.	8a)	.	.	.
.	(8g	4cc#	.	4ee
.	8eJ)	.	.	.
=68	=68	=68	=68	=68
2D	4d	16ddLL	.	16ff#LL
.	.	16ee	f	16gg
.	.	16dd	.	16ff#
.	.	16cc#JJ	.	16eeJJ
.	4r	16ddLL	.	16ff#LL
.	.	16ff#	.	16aa
.	.	16ee	.	16gg
.	.	16ddJJ	.	16ff#JJ
2D	4d	16eeLL	.	16ggLL
.	.	16ff#	.	16aa
.	.	16ee	.	16gg
.	.	16ddJJ	.	16ff#JJ
.	4r	16eeLL	.	16ggLL
.	.	16gg	.	16bb
.	.	16ff#	.	16aa
.	.	16eeJJ	.	16ggJJ
=69	=69	=69	=69	=69
4D	4d	16ff#LL	.	16aaLL
.	.	16dd	.	16dd
.	.	16cc#	.	16ee
.	.	16ddJJ	.	16ff#JJ
4r	4r	16eeLL	.	16ggLL
.	.	16ff#	.	16aa
.	.	16gg	.	16bb
.	.	16eeJJ	.	16ccc#JJ
8r	8r	8ff#L	.	8dddL
(8F#L	(8aL	8ff#	.	8aa
8G)	8b)	8ee	.	8gg
8G#X'J	8b'J	8ddJ	.	8ff#J
=70	=70	=70	=70	=70
4A	(4e	(4cc#	.	16eeLL
.	.	.	.	16ee
.	.	.	.	16cc#
.	.	.	.	16aJJ
4D	4f#	4dd	.	16ff#LL
.	.	.	.	16aa
.	.	.	.	16ff#
.	.	.	.	16ddJJ
4AA	4g	4ee	.	16cc#LL
.	.	.	.	16ee
.	.	.	.	16cc#
.	.	.	.	16aJJ
4D	4f#)	4dd)	.	16ff#LL
.	.	.	.	16aa
.	.	.	.	16ff#
.	.	.	.	16ddJJ
=71	=71	=71	=71	=71
4A	4e	4cc#	.	4ee
4AA	4A	(16ALL	.	(16ALL
.	.	16B	.	16B
.	.	16c#	.	16c#
.	.	16BJJ)	.	16BJJ)
4AA	4A	4A'	.	4A'
4r	4r	4r	.	4r
=72	=72	=72	=72	=72
8DL	8dL	4a 4ff#	.	4a 4aa
8F#	8d	.	.	.
8A	8d	4dd	.	4a 4ff#
8F#J	8dJ	.	.	.
4D	8dL	8r	.	8r
.	8d	8f#L	.	8aL
4r	8d	8f#	.	8a
.	8dJ	8f#J	.	8aJ
=73	=73	=73	=73	=73
1r	8dL	8.gTL	.	8.bTL
.	8d	.	.	.
.	.	32f#LL	.	32aLL
.	.	32gJJJ	.	32bJJJ
.	8d	4f#	.	4a
.	8dJ	.	.	.
.	4d	16r	.	16r
.	.	16f#LL	.	16aLL
.	.	16g	.	16b
.	.	16aJJ	.	16cc#JJ
.	4r	16bLL	.	16ddLL
.	.	16cc#	.	16ee
.	.	16dd	.	16ff#
.	.	16eeJJ	.	16ggJJ
=74	=74	=74	=74	=74
8DL	8dL	4a 4ff#	.	4a 4aa
8F#	8d	.	.	.
8A	8d	4dd	.	4a 4ff#
8F#J	8dJ	.	.	.
4D	8dL	8r	.	8r
.	8d	8f#L	.	8aL
4r	8d	8f#	.	8a
.	8dJ	8f#J	.	8aJ
=75	=75	=75	=75	=75
2r	8dL	8.eTL	.	8.gTL
.	8d	.	.	.
.	.	32dLL	.	32f#LL
.	.	32eJJJ	.	32gJJJ
.	8d	4d	.	4f#
.	8dJ	.	.	.
8F#L	8AL	4r	.	(8ddL
8F#	8A	.	.	8ff#)
8F#	8A	(4a	.	8aa'
8F#J	8AJ	.	.	8ddd'J
=76	=76	=76	=76	=76
8EL	[1A	4g	.	(8dddL
8E	.	.	.	8ccc#)
8D	.	4f#)	.	8bb'
8DJ	.	.	.	8aa'J
8C#L	.	(8f#L	.	(8aaL
8C#	.	8e)	.	8gg)
8AA	.	8d'	.	8ff#'
8AAJ	.	8c#'J	.	8ee'J
=77	=77	=77	=77	=77
8DL	2A]	(16dLL	.	(16ff#LL
.	.	16f#)	.	16aa)
8D	.	(16e	.	(16gg
.	.	16gJJ)	.	16bbJJ)
8D	.	4f#	.	4bb
8DJ	.	.	.	.
8DL	[2F#	4r	.	(8bL
8D	.	.	.	8dd)
8D	.	(4f#	.	8ff#'
8DJ	.	.	.	8bb'J
=78	=78	=78	=78	=78
!	!	!	!	!
8C#L	1F#_	4e	.	(8bbL
8C#	.	.	.	8aa#X)
8BB	.	4d)	.	8gg'
8BBJ	.	.	.	8ff#'J
8AA#XL	.	(8dL	.	(8ff#L
8AA#	.	8c#)	.	8ee)
8FF#	.	8B'	.	8dd'
8FF#J	.	8A#X'J	.	8cc#'J
=79	=79	=79	=79	=79
8BBL	2F#]	(16BLL	.	(16ddLL
.	.	16d)	.	16ff#)
8BB	.	(16c#	.	(16ee
.	.	16eJJ)	.	16ggJJ)
8BB	.	4d	.	4ff#
8BBJ	.	.	.	.
8BBL	2d	4r	.	(8gL
8BB	.	.	.	8b)
8BB	.	(4dd	.	8dd'
8BBJ	.	.	.	8gg'J
=80	=80	=80	=80	=80
8AAL	[1d	4ccn	.	(8ggL
8AA	.	.	.	8ff#)
8G	.	4b)	.	8ee'
8GJ	.	.	.	8dd'J
8F#L	.	(8bL	.	(8ddL
8F#	.	8a)	.	8ccn)
8D	.	8g'	.	8b'
8DJ	.	8f#'J	.	8a'J
=81	=81	=81	=81	=81
4G	4d]	4g	.	8bL
.	.	.	.	16cc#L
.	.	.	.	16ddJJ
4r	4r	4r	.	16eeLL
.	.	.	.	16ff#
.	.	.	.	16gg
.	.	.	.	16aaJJ
8GL	8d#XL	8f#L	.	[2bb
8G	8d#	8f#	.	.
8G	8d#	8f#	.	.
8GJ	8d#J	8f#J	.	.
=82	=82	=82	=82	=82
8GL	(8eL	8eL	.	4bb]
8G	8B)	8e	.	.
.	.	.	.	16qqaa/
8G	8B'	8e	.	4gg
8GJ	8B'J	8eJ	.	.
.	.	.	.	16qqff#/
8G'L	(8BL	(8eL	.	4.ee
8G'	8e)	8g)	.	.
(8G	8e'	8b'	.	.
8G#XJ)	8e'J	8b'J	.	8dd
=83	=83	=83	=83	=83
8AL	4e	8.bTL	.	8.ddTL
8AA	.	.	.	.
.	.	32aLL	.	32cc#LL
.	.	32bJJJ	.	32ddJJJ
8AA	4e	4a	.	4cc#
8AAJ	.	.	.	.
!	!	!	!	!
8AAL	2g	2r	.	8eeL
8AA	.	.	.	16cc#L
.	.	.	.	16aJJ
8AA	.	.	.	8eeL
8AAJ	.	.	.	16cc#L
.	.	.	.	16aJJ
=84	=84	=84	=84	=84
2AA	8f#L	2r	.	(8ddL
.	8a	.	.	8ff#J)
.	8f#	.	.	2aa
.	8dJ	.	.	.
2AA	(8c#L	8eL	.	.
.	8E)	16c#L	.	.
.	.	16AJJ	.	.
.	(8c#	8eL	.	8.ggTL
.	8EJ)	16c#L	.	.
.	.	16AJJ	.	32ff#LL
.	.	.	.	32ggJJJ
=85	=85	=85	=85	=85
2AA	(8AL	(8dL	.	(8ff#L
.	8dJ)	8f#J)	.	8aaJ)
.	4f#	2a	.	4dd
2AA	(8c#L	.	.	8eeL
.	8e	.	.	16cc#L
.	.	.	.	16bJJ
.	8c#	8.gTL	.	8eeL
.	8eJ)	.	.	16cc#L
.	.	32f#LL	.	16aJJ
.	.	32gJJJ	.	.
=86	=86	=86	=86	=86
2AA	(8AL	(8f#L	.	(8ddL
.	8dJ)	8aJ)	.	8ff#J)
.	4F#	4d	.	2aa
2AA	(8c#L	8eL	.	.
.	8E)	16c#L	.	.
.	.	16AJJ	.	.
.	(8c#	8eL	.	8.ggTL
.	8EJ)	16c#L	.	.
.	.	16AJJ	.	32ff#LL
.	.	.	.	32ggJJJ
=87	=87	=87	=87	=87
4D	4D	8d 8a	.	8ff#
.	.	4dd	.	4ddd
4D	4f#	.	.	.
.	.	4ccn	.	4cccn
4E	4g	.	.	.
.	.	4b	.	4bb
4F#	4d	.	.	.
.	.	8a#X	.	8aa#X
=88	=88	=88	=88	=88
8r	8r	(4.b	.	(4.bb
8G	8d	.	.	.
4G	4d	.	.	.
.	.	8cc#)	.	8ccc#)
8r	8r	(4.dd	.	(4.ddd
8GG	8B	.	.	.
4GG	4B	.	.	.
.	.	8b)	.	8bb)
=89	=89	=89	=89	=89
8r	8r	(4.g	.	(4.gg
8G	8B	.	.	.
4G	4B	.	.	.
.	.	8e)	.	8ee)
.	.	16qqcc#/	.	16qqccc#/
2r	2r	8bL	.	8bbL
.	.	16aL	.	16aaL
.	.	16gJJ	.	16ggJJ
.	.	16qqa/	.	16qqaa/
.	.	8gL	.	8ggL
.	.	16f#L	.	16ff#L
.	.	16eJJ	.	16eeJJ
=90	=90	=90	=90	=90
8F#L	8AL	8dL	.	[4dd
8F#	8A	8d	.	.
8B	8d	8f#	.	(16ddLL]
.	.	.	.	16ee)
8BJ	8dJ	8f#J	.	16dd
.	.	.	.	16eeJJ
8GL	8dL	8b'L	.	2eeT
8G	8d	(8b	.	.
8A	8c#	8a	.	.
8AJ	8c#J	8gJ)	.	.
=91	=91	=91	=91	=91
4D	8dL	8f#'L	.	4dd
.	8f#'	8a'	.	.
4r	8f#'	8a'	.	4r
.	8f#'J	8a'J	.	.
2r	(8f#tL	(8aTL	.	2r
.	8e)	8g)	.	.
.	(8eT	(8gT	.	.
.	8dJ)	8f#J)	.	.
=92	=92	=92	=92	=92
4E	8r	8r	.	(2.g
.	8BL	8eL	.	.
4r	8B	8e	.	.
.	8BJ	8eJ	.	.
4D	8r	8r	.	.
.	8BL	8eL	.	.
4r	8G	8e	.	4b)
.	8GJ	8eJ	.	.
=93	=93	=93	=93	=93
4C#	8r	8r	.	(8bL
.	8GL	8eL	.	8aJ)
4r	8G	8e	.	2a
.	8GJ	8eJ	.	.
4D	8r	8r	.	.
.	(8F#L	8dL	.	.
4r	8B	8d	.	(8gL
.	8AJ)	8dJ	.	8f#J)
=94	=94	=94	=94	=94
.	.	.	.	8qqf#/
4GG	8r	8r	.	4e
.	8GL	8BL	.	.
4r	8G	8B	.	(2d
.	8GJ	8BJ	.	.
4AA	8F#L	8r	.	.
.	8F#	8AL	.	.
4r	8E	8A	.	4c#)
.	8EJ	8AJ	.	.
=95	=95	=95	=95	=95
4D	8D'L	8r	.	(4.d
.	8F#'	8A'L	.	.
4r	(8F#	(8A	.	.
.	8GJ)	8c#J)	.	8e)
2r	8A'L	8d'L	.	4f#
.	(8f#	(8a	.	.
.	8e	8g	.	4r
.	8dJ)	8f#J)	.	.
=96	=96	=96	=96	=96
4E	8r	8r	.	(2.gg
.	8eL	8bL	.	.
4r	8e	8b	.	.
.	8eJ	8bJ	.	.
4D	8r	8r	.	.
.	8eL	(8bL	.	.
4r	8e	8g)	.	4bb)
.	8eJ	8g'J	.	.
=97	=97	=97	=97	=97
4C#	8r	8r	.	(8bbL
.	8eL	8gL	.	8aaJ)
4r	8e	8g	.	2aa
.	8eJ	8gJ	.	.
4D	8r	8r	.	.
.	(8dL	(8f#L	.	.
4r	8e	8g	.	(8ggL
.	8f#J)	8aJ)	.	8ff#J)
=98	=98	=98	=98	=98
.	.	.	.	8qqff#/
4G	8r	8r	.	4ee
.	8gL	8bL	.	.
4r	8g	8b	.	(2dd
.	8gJ	8bJ	.	.
4A	8f#L	8aL	.	.
.	8f#	8a	.	.
4r	8e	8g	.	4cc#)
.	8eJ	8gJ	.	.
=99	=99	=99	=99	=99
2B-X	2d	8fnL	.	[2d [2dd
.	.	8f	f	.
.	.	8f	.	.
.	.	8fJ	.	.
2B-	2d	8fL	.	8dL] 8dd]
.	.	8f	.	16eeL
.	.	.	.	16ffnJJ
.	.	8f	.	16ggLL
.	.	.	.	16aa
.	.	8fJ	.	16bb-X
.	.	.	.	16ccc#JJ
=100	=100	=100	=100	=100
2BB-X	2d	8fnL	.	2ddd
.	.	8f	.	.
.	.	8f	.	.
.	.	8fJ	.	.
2BBn	2d	8fL	.	2G#X
.	.	8f	.	.
.	.	8f	.	.
.	.	8fJ	.	.
=101	=101	=101	=101	=101
8C#L	8GL	8eL	.	[2G
8C#	8G	8e	.	.
8C#	8G	8e	.	.
8C#J	8GJ	8eJ	.	.
8C#L	8EL	4e	.	8GL]
8C#	8E	.	.	16AL
.	.	.	.	16BJJ
8BB	8D	4r	.	16c#LL
.	.	.	.	16d
8BBJ	8DJ	.	.	16e
.	.	.	.	16f#JJ
=102	=102	=102	=102	=102
2AA	2C#	8eL	.	2g
.	.	8e	.	.
.	.	8e	.	.
.	.	8eJ	.	.
2C#	2A	8eL	.	2gg
.	.	8e	.	.
.	.	8e	.	.
.	.	8eJ	.	.
=103	=103	=103	=103	=103
2D	4A	8dL	.	4ff#
.	.	16f#XL	.	.
.	.	16aJJ	.	.
.	4r	4dd	.	8r
.	.	.	.	16aaLL
.	.	.	.	16ff#JJ
2F#	8aL	2r	.	8dddL
.	8a	.	.	16aaL
.	.	.	.	16ff#JJ
.	8a	.	.	8dddL
.	8aJ	.	.	16aaL
.	.	.	.	16ff#JJ
=104	=104	=104	=104	=104
2G	4d	8BL	.	4ee
.	.	16eL	.	.
.	.	16gJJ	.	.
.	4r	4b	.	8r
.	.	.	.	16ggLL
.	.	.	.	16eeJJ
2G	8dL	2r	.	8bbL
.	8d	.	.	16ggL
.	.	.	.	16ff#JJ
.	8d	.	.	8bbL
.	8dJ	.	.	16ggL
.	.	.	.	16eeJJ
=105	=105	=105	=105	=105
2A	8AL	8d	.	8ff#
.	8A	4f#	.	4aa
.	8A	.	.	.
.	8AJ	4e	.	4gg
2AA	8AL	.	.	.
.	8A	4d	.	4ff#
.	8A	.	.	.
.	8GJ	8c#	.	8ee
=106	=106	=106	=106	=106
2D	4F#	8dL	.	4dd
.	.	16f#XL	.	.
.	.	16aJJ	.	.
.	4r	4dd	.	8r
.	.	.	.	16aLL
.	.	.	.	16f#JJ
2F#	8AL	2r	.	8ddL
.	8A	.	.	16aL
.	.	.	.	16f#JJ
.	8A	.	.	8ddL
.	8AJ	.	.	16aL
.	.	.	.	16f#JJ
=107	=107	=107	=107	=107
2G	4G	8BL	.	4e
.	.	16eL	.	.
.	.	16gJJ	.	.
.	4r	4b	.	8r
.	.	.	.	16gLL
.	.	.	.	16eJJ
4G	2r	2r	.	8bL
.	.	.	.	16gL
.	.	.	.	16eJJ
4r	.	.	.	8eeL
.	.	.	.	16bL
.	.	.	.	16gJJ
=108	=108	=108	=108	=108
4G	4B	4e	.	8ggL
.	.	.	.	16eeL
.	.	.	.	16bJJ
4r	4r	4r	.	8bbL
.	.	.	.	16ggL
.	.	.	.	16eeJJ
2r	2r	2r	.	8ddd'L
.	.	.	.	8ccc#'
.	.	.	.	8bb'
.	.	.	.	8aa#X'J
=109	=109	=109	=109	=109
1r	1r	8d	.	8bb'L
.	.	4f#	.	8aa'
.	.	.	.	8gg'
.	.	4e	.	8ff#'J
.	.	.	.	8gg'L
.	.	4d	.	8ff#'
.	.	.	.	8ee'
.	.	8c#	.	8dd'J
=110	=110	=110	=110	=110
2AA	(4A	2e	.	16cc#LL
.	.	.	.	16dd
.	.	.	.	16ee
.	.	.	.	16ddJJ
.	4c#)	.	.	16cc#LL
.	.	.	.	16b
.	.	.	.	16a
.	.	.	.	16gJJ
2D	(4A	4d	.	16f#LL
.	.	.	.	16g
.	.	.	.	16a
.	.	.	.	16gJJ
.	4F#)	4A	.	16f#LL
.	.	.	.	16e
.	.	.	.	16d
.	.	.	.	16cnJJ
=111	=111	=111	=111	=111
4GG	4D	4G	.	16BLL
.	.	.	.	16c#
.	.	.	.	16d
.	.	.	.	16c#JJ
4r	4r	4r	.	16dLL
.	.	.	.	16d#X
.	.	.	.	16e
.	.	.	.	16d#JJ
2r	2r	2r	.	16eLL
.	.	.	.	16f#
.	.	.	.	16g
.	.	.	.	16f#JJ
.	.	.	.	16gLL
.	.	.	.	16a#X
.	.	.	.	16b
.	.	.	.	16a#JJ
=112	=112	=112	=112	=112
4G	4G	4d	.	16bLL
.	.	.	.	16dd#X
.	.	.	.	16ee
.	.	.	.	16dd#JJ
4r	4r	4r	.	16eeLL
.	.	.	.	16ff#
.	.	.	.	16gg
.	.	.	.	16ff#JJ
2r	2r	4r	.	16ggLL
.	.	.	.	16aa#X
.	.	.	.	16bb
.	.	.	.	16aa#JJ
.	.	4r	.	16bbLL
.	.	.	.	16ccc#
.	.	.	.	16ddd
.	.	.	.	16ccc#JJ
=113	=113	=113	=113	=113
4F#	4A	4d	.	16dddLL
.	.	.	.	16ccc#
.	.	.	.	16bb
.	.	.	.	16aaJJ
4r	4r	4r	.	16ggLL
.	.	.	.	16ff#
.	.	.	.	16ee
.	.	.	.	16ddJJ
4G	4B	4d	.	16bbLL
.	.	.	.	16aa
.	.	.	.	16gg
.	.	.	.	16ff#JJ
4r	4r	4r	.	16eeLL
.	.	.	.	16dd
.	.	.	.	16cc#
.	.	.	.	16bJJ
=114	=114	=114	=114	=114
.	.	.	.	16qqa/
8AL	(4d	4f#	.	4aa
8A	.	.	.	.
8A	4f#)	(2dd	.	16ggLL
.	.	.	.	16ff#
8AJ	.	.	.	16ee
.	.	.	.	16ddJJ
8AAL	2g	.	.	2eeT
8AA	.	.	.	.
8AA	.	4cc#)	.	.
8AAJ	.	.	.	.
=115	=115	=115	=115	=115
4D	16f#LL	4dd	.	4dd
.	16a	.	.	.
.	16dd	.	.	.
.	16cc#JJ	.	.	.
4F#	16ddLL	4r	.	4r
.	16cc#	.	.	.
.	16b	.	.	.
.	16aJJ	.	.	.
4E	16gLL	4r	.	4r
.	16f#	.	.	.
.	16e	.	.	.
.	16dJJ	.	.	.
4AA	16c#LL	8.eeTL	.	8.ggTL
.	16A	.	.	.
.	16B	.	.	.
.	16c#JJ	32ddLL	.	32ff#LL
.	.	32eeJJJ	.	32ggJJJ
=116	=116	=116	=116	=116
8DL	16f#LL	4dd	.	4ff#
.	16a	.	.	.
8D	16dd	.	.	.
.	16cc#JJ	.	.	.
8G	16bLL	4r	.	4r
.	16a	.	.	.
8GJ	16g	.	.	.
.	16f#JJ	.	.	.
8AL	16eLL	4r	.	4r
.	16d	.	.	.
8A	16e	.	.	.
.	16f#JJ	.	.	.
8AA	16gLL	8.cc#tL	.	8.eeTL
.	16e	.	.	.
8AAJ	16a	.	.	.
.	16gJJ	32bLL	.	32ddLL
.	.	32cc#JJJ	.	32eeJJJ
=117	=117	=117	=117	=117
8DL	4f#	4dd	.	16ddLL
.	.	.	.	16ff#
8D	.	.	.	16aa
.	.	.	.	16ff#JJ
8G	(8dL	(8bL	.	16eeLL
.	.	.	.	16gg
8GJ	8BJ)	16gL)	.	16bb
.	.	16eJJ	.	16ggJJ
8AL	(4A	(4d	.	16ff#LL
.	.	.	.	16aa
8A	.	.	.	16ff#
.	.	.	.	16ddJJ
8AA	4e)	4g)	.	16eeLL
.	.	.	.	16gg
8AAJ	.	.	.	16ee
.	.	.	.	16cc#JJ
=118	=118	=118	=118	=118
4D	4d	4f#	.	16ddLL
.	.	.	.	16ff#
.	.	.	.	16aa
.	.	.	.	16ff#JJ
4D	(8dL	(8bL	.	16eeLL
.	.	.	.	16gg
.	8BJ)	16gL	.	16bb
.	.	16eJJ)	.	16ggJJ
4D	4A	4d	.	16ff#LL
.	.	.	.	16aa
.	.	.	.	16ff#
.	.	.	.	16ddJJ
4r	4e	4g	.	16eeLL
.	.	.	.	16gg
.	.	.	.	16ee
.	.	.	.	16cc#JJ
=119	=119	=119	=119	=119
4D	4d	4d	.	4dd
4D	4A	4A 4f# 4dd	.	4d 4a 4ff#
4D	4D	4A 4f# 4dd	.	4d 4a 4ff#
4r	4r	4r	.	4r
==	==	==	==	==
*-	*-	*-	*-	*-
!!!system-decoration: [(s1,s2,s3,s4)]
